launcher/android/assets/skins/day/svg/mapVirtual1.svg

<svg enable-background="new 0 0 258.00 258.00" height="258" viewBox="0 0 258 258" width="258" xmlns="http://www.w3.org/2000/svg" xmlns:xlink="http://www.w3.org/1999/xlink"><linearGradient id="a"><stop offset="0" stop-color="#737373"/><stop offset="1" stop-color="#fff"/></linearGradient><linearGradient id="b" gradientUnits="objectBoundingBox" x1="-.00000133868" x2="1" xlink:href="#a" y1=".500001" y2=".500001"/><linearGradient id="c" gradientUnits="objectBoundingBox" x1="-.000003316" x2=".999997" xlink:href="#a" y1=".500015" y2=".500015"/><linearGradient id="d" gradientUnits="objectBoundingBox" x1="-.00000211989" x2="1" xlink:href="#a" y1=".500018" y2=".500018"/><g stroke-linejoin="bevel"><g stroke-width="5"><path d="m206.508 89.4821-.667 18.3329-4 11.667-5.333 10-5 8-6.667 7-5 3-4.667 1-2.666-6.333v-8.667l.333-7 3.333-7.333 8-6 8-6.333 8-7.3337z" fill="#fff" stroke="#000"/><path d="m46.1744 91.4821 11.6667 12.9999 2.6666 1.667 7.6666 8 6 4.333 6.3334 3 4.3334 6.667 3.3332 9.333 1.6668 9 .6666 7.334-3 2.666-6-3.333-8.3334-8.333-9.6666-10.334-5.6666-9-5-9-3-10.333-1.6668-8.0001z" fill="#fff" stroke="#000"/><path d="m79.1744 119.149-1.3333-18.667v-13.9997l2-12.6667 6.6666-11 5.6666-7 8.3337-6.6667 9.666-5.6666 10.667-1.6667 18.667 1 11.333 3 9.667 4.3333 8.666 5.6667 6.334 6 5 9.6667 2.666 10 2 9.3333-2.333 12.0004-4.333 9.666-4.334 8-.666 9 .666 10.667 1.667 7.667 5 8.666 7 7 5.333 5.334 8.334 4.333 6.666 4 1.334 3.333-2.334 4-5.666 7.334-6.667 6.666-8 5-6.333 3.334-7.667 2-9 2.333h-11.667-11l-7.333-2-6.333-3-6-4.667-5-3.333-4.667 4-5.333 4.333-4 3.334-6.3337 1.333-11.6666 1.333-8.3334-.666-7-5.334 1.3334-3.333 6.6666-4.333 6.3334-6 5-8.334 1.3334-11 .6666-9-.3334-12-1.6666-8.333-3-8.333-2.6666-6.667z" fill="#fff" stroke="#000"/><path d="m100.841 119.482 9.667 8.333 6.333 1.001 8 .666 10-1.333 7.667-1.333 6.333-3 5.667-3.667-1 3-6 8.333-7 11-6 8-6 7.334-2.667 1.666-6.333-6.666-4.667-8-5.333-8.334-4.667-8.333-3.667-6.333z" fill="#f00" stroke="#000"/><path d="m104.174 69.8154 8.667 8.3334 5.333 4.0001 2.334 6.6667.333 22.0004-11.667-1-.333-17.3337.333-11.6667z" stroke="#2d2d2d"/><path d="m149.562 70.8042-8.666 8.3334-5.334 4.0001-2.333 6.6666-.333 21.9997 11.666-1 .334-17.3329-.334-11.6668z" stroke="#2d2d2d"/></g><path d="m114.174 47.8154 22 4.3334 12 5.3335 9.667 7.3333 8 10 1.333 13-.333 17.6664-2.667 17s-.666 13-1 14.667c-.333 1.667-1 8.667-1 8.667l3.334 9.333 4 8 7.666 7.333 9 6 8.334 4 7.333 1.667 3.521-4.771-11.75-6.5-7.625-6.875-7.625-8.375-5.854-13.479.666-15.667 2.334-10 5.729-16.6039 1.604-13.3958-7.104-21.1042-7.896-8.2292-14.854-9.0208-17.479-3.9792-13.334-.3333z" fill="url(#b)" stroke-width=".2"/><path d="m79.3098 199.514-4.625 3.312-3.6875 2.625 5.0938 4.115 4.5 1.166 6.8332.167 5.6668-.167 7.7189-2.281 4.281-3.385 2.719-2.552-6.386.885-6.4997 2.167-6.3332-.667-4.8334-3-2.8229-3.448z" fill="url(#c)" stroke-width=".2"/><path d="m121.841 199.545 8.469 5.781 7.937 2.813 5.563.875 18.614.885 7.167-1.667 9.833-3.833-3.833-1.667-5.667 1-8 2.334-8.833-.167-13.667-3.333-7.666-2.5z" fill="url(#d)" stroke-width=".2"/></g></svg>

﻿<?xml version="1.0" encoding="utf-8"?>
<!DOCTYPE svg PUBLIC "-//W3C//DTD SVG 1.1//EN" "http://www.w3.org/Graphics/SVG/1.1/DTD/svg11.dtd">
<svg xmlns="http://www.w3.org/2000/svg" xmlns:xlink="http://www.w3.org/1999/xlink" version="1.1" baseProfile="full" width="258" height="258" viewBox="0 0 258.00 258.00" enable-background="new 0 0 258.00 258.00" xml:space="preserve">
	<g>
		<path fill="#FFFFFF" fill-opacity="1" stroke-width="5" stroke-linejoin="bevel" stroke="#000000" stroke-opacity="1" d="M 206.508,89.4821L 205.841,107.815L 201.841,119.482L 196.508,129.482L 191.508,137.482L 184.841,144.482L 179.841,147.482L 175.174,148.482L 172.508,142.149L 172.508,133.482L 172.841,126.482L 176.174,119.149L 184.174,113.149L 192.174,106.816L 200.174,99.4823L 206.508,89.4821 Z "/>
		<path fill="#FFFFFF" fill-opacity="1" stroke-width="5" stroke-linejoin="bevel" stroke="#000000" stroke-opacity="1" d="M 46.1744,91.4821L 57.8411,104.482L 60.5077,106.149L 68.1743,114.149L 74.1743,118.482L 80.5077,121.482L 84.8411,128.149L 88.1743,137.482L 89.8411,146.482L 90.5077,153.816L 87.5077,156.482L 81.5077,153.149L 73.1743,144.816L 63.5077,134.482L 57.8411,125.482L 52.8411,116.482L 49.8411,106.149L 48.1743,98.1489L 46.1744,91.4821 Z "/>
		<path fill="#FFFFFF" fill-opacity="1" stroke-width="5" stroke-linejoin="bevel" stroke="#000000" stroke-opacity="1" d="M 79.1744,119.149L 77.8411,100.482L 77.8411,86.4823L 79.8411,73.8156L 86.5077,62.8156L 92.1743,55.8156L 100.508,49.1489L 110.174,43.4823L 120.841,41.8156L 139.508,42.8156L 150.841,45.8156L 160.508,50.1489L 169.174,55.8156L 175.508,61.8156L 180.508,71.4823L 183.174,81.4823L 185.174,90.8156L 182.841,102.816L 178.508,112.482L 174.174,120.482L 173.508,129.482L 174.174,140.149L 175.841,147.816L 180.841,156.482L 187.841,163.482L 193.174,168.816L 201.508,173.149L 208.174,177.149L 209.508,180.482L 207.174,184.482L 201.508,191.816L 194.841,198.482L 186.841,203.482L 180.508,206.816L 172.841,208.816L 163.841,211.149L 152.174,211.149L 141.174,211.149L 133.841,209.149L 127.508,206.149L 121.508,201.482L 116.508,198.149L 111.841,202.149L 106.508,206.482L 102.508,209.816L 96.1743,211.149L 84.5077,212.482L 76.1743,211.816L 69.1743,206.482L 70.5077,203.149L 77.1743,198.816L 83.5077,192.816L 88.5077,184.482L 89.8411,173.482L 90.5077,164.482L 90.1743,152.482L 88.5077,144.149L 85.5077,135.816L 82.8411,129.149L 79.1744,119.149 Z "/>
		<path fill="#FF0000" fill-opacity="1" stroke-width="5" stroke-linejoin="bevel" stroke="#000000" stroke-opacity="1" d="M 100.841,119.482L 110.508,127.815L 116.841,128.816L 124.841,129.482L 134.841,128.149L 142.508,126.816L 148.841,123.816L 154.508,120.149L 153.508,123.149L 147.508,131.482L 140.508,142.482L 134.508,150.482L 128.508,157.816L 125.841,159.482L 119.508,152.816L 114.841,144.816L 109.508,136.482L 104.841,128.149L 101.174,121.816L 100.841,119.482 Z "/>
		<path fill="#000000" fill-opacity="1" stroke-width="5" stroke-linejoin="bevel" stroke="#2D2D2D" stroke-opacity="1" d="M 104.174,69.8154L 112.841,78.1488L 118.174,82.1489L 120.508,88.8156L 120.841,110.816L 109.174,109.816L 108.841,92.4823L 109.174,80.8156L 104.174,69.8154 Z "/>
		<path fill="#000000" fill-opacity="1" stroke-width="5" stroke-linejoin="bevel" stroke="#2D2D2D" stroke-opacity="1" d="M 149.562,70.8042L 140.896,79.1376L 135.562,83.1377L 133.229,89.8043L 132.896,111.804L 144.562,110.804L 144.896,93.4711L 144.562,81.8043L 149.562,70.8042 Z "/>
		<linearGradient id="SVGID_Fill1_" gradientUnits="objectBoundingBox" x1="-1.33868e-006" y1="0.500001" x2="1" y2="0.500001">
			<stop offset="0" stop-color="#737373" stop-opacity="1"/>
			<stop offset="1" stop-color="#FFFFFF" stop-opacity="1"/>
		</linearGradient>
		<path fill="url(#SVGID_Fill1_)" stroke-width="0.2" stroke-linejoin="bevel" d="M 114.174,47.8154L 136.174,52.1488L 148.174,57.4823L 157.841,64.8156L 165.841,74.8156L 167.174,87.8156L 166.841,105.482L 164.174,122.482C 164.174,122.482 163.508,135.482 163.174,137.149C 162.841,138.816 162.174,145.816 162.174,145.816L 165.508,155.149L 169.508,163.149L 177.174,170.482L 186.174,176.482L 194.508,180.482L 201.841,182.149L 205.362,177.378L 193.612,170.878L 185.987,164.003L 178.362,155.628L 172.508,142.149L 173.174,126.482L 175.508,116.482L 181.237,99.8781L 182.841,86.4823L 175.737,65.3781L 167.841,57.1489L 152.987,48.1281L 135.508,44.1489L 122.174,43.8156L 114.174,47.8154 Z "/>
		<linearGradient id="SVGID_Fill2_" gradientUnits="objectBoundingBox" x1="-3.316e-006" y1="0.500015" x2="0.999997" y2="0.500015">
			<stop offset="0" stop-color="#737373" stop-opacity="1"/>
			<stop offset="1" stop-color="#FFFFFF" stop-opacity="1"/>
		</linearGradient>
		<path fill="url(#SVGID_Fill2_)" stroke-width="0.2" stroke-linejoin="bevel" d="M 79.3098,199.514L 74.6848,202.826L 70.9973,205.451L 76.0911,209.566L 80.5911,210.732L 87.4243,210.899L 93.0911,210.732L 100.81,208.451L 105.091,205.066L 107.81,202.514L 101.424,203.399L 94.9243,205.566L 88.5911,204.899L 83.7577,201.899L 80.9348,198.451L 79.3098,199.514 Z "/>
		<linearGradient id="SVGID_Fill3_" gradientUnits="objectBoundingBox" x1="-2.11989e-006" y1="0.500018" x2="1" y2="0.500018">
			<stop offset="0" stop-color="#737373" stop-opacity="1"/>
			<stop offset="1" stop-color="#FFFFFF" stop-opacity="1"/>
		</linearGradient>
		<path fill="url(#SVGID_Fill3_)" stroke-width="0.2" stroke-linejoin="bevel" d="M 121.841,199.545L 130.31,205.326L 138.247,208.139L 143.81,209.014L 162.424,209.899L 169.591,208.232L 179.424,204.399L 175.591,202.732L 169.924,203.732L 161.924,206.066L 153.091,205.899L 139.424,202.566L 131.758,200.066L 121.841,199.545 Z "/>
	</g>
</svg>
